atec-cache-info/assets/img/atec-group/atec_wpmi_icon.svg

<svg height="800" viewBox="0 0 32 32" width="800" xmlns="http://www.w3.org/2000/svg"><path d="m26 0h-20a2 2.286 0 0 0 -2 2.286v4.571a2 2.286 0 0 0 2 2.286h9v7.051l-2.59-2.948-1.41 1.611 5 5.714 5-5.714-1.41-1.611-2.59 2.948v-7.051h9a2 2.286 0 0 0 2-2.286v-4.571a2 2.286 0 0 0 -2-2.286zm-20 2.286h4v4.571h-4zm20 4.571h-14v-4.571h14z" stroke-width="1.06905"/><path d="m26 22.857h-20a2 2.286 0 0 0 -2 2.286v4.571a2 2.286 0 0 0 2 2.286h20a2 2.286 0 0 0 2-2.286v-4.571a2 2.286 0 0 0 -2-2.286zm-20 2.286h14v4.571h-14zm20 4.571h-4v-4.571h4z" stroke-width="1.06905"/><path d="m0 0h32v32h-32z" fill="none"/></svg>

<svg width="800" height="800" viewBox="0 0 32 32" id="icon" xmlns="http://www.w3.org/2000/svg"><defs id="defs1"><style id="style1">.cls-1{fill:none}</style></defs><path d="M26 0H6a2 2.286 0 0 0-2 2.286v4.571a2 2.286 0 0 0 2 2.286h9v7.051l-2.59-2.948L11 14.857l5 5.714 5-5.714-1.41-1.611L17 16.194V9.143h9a2 2.286 0 0 0 2-2.286V2.286A2 2.286 0 0 0 26 0zM6 2.286h4v4.571H6zm20 4.571H12V2.286h14z" id="path1" stroke-width="1.06905"/><path d="M26 22.857H6a2 2.286 0 0 0-2 2.286v4.571A2 2.286 0 0 0 6 32h20a2 2.286 0 0 0 2-2.286v-4.571a2 2.286 0 0 0-2-2.286zM6 25.143h14v4.571H6zm20 4.571h-4v-4.571h4z" id="path2" stroke-width="1.06905"/><path id="_Transparent_Rectangle_" data-name="&lt;Transparent Rectangle&gt;" class="cls-1" d="M0 0H32V32H0z"/></svg>
